svg/monochrome/align-justify.svg

<svg xmlns="http://www.w3.org/2000/svg" viewBox="0 0 24 24"><path class="uim-primary" d="M21 7H3a1 1 0 0 1 0-2h18a1 1 0 0 1 0 2zm0 4H3a1 1 0 0 1 0-2h18a1 1 0 0 1 0 2zm0 4H3a1 1 0 0 1 0-2h18a1 1 0 0 1 0 2zm0 4H3a1 1 0 0 1 0-2h18a1 1 0 0 1 0 2z"/></svg>

<svg xmlns="http://www.w3.org/2000/svg" viewBox="0 0 24 24"><path class="uim-primary" d="M21 7H3A1 1 0 0 1 3 5H21a1 1 0 0 1 0 2zM21 11H3A1 1 0 0 1 3 9H21a1 1 0 0 1 0 2zM21 15H3a1 1 0 0 1 0-2H21a1 1 0 0 1 0 2zM21 19H3a1 1 0 0 1 0-2H21a1 1 0 0 1 0 2z"/></svg>
